z_dist/img/icons/crypto/enjin-coin-ENJ.svg

<svg width="64" height="64" viewBox="0 0 64 64" fill="none" xmlns="http://www.w3.org/2000/svg">
<path d="M0 4C0 1.79086 1.79086 0 4 0H60C62.2091 0 64 1.79086 64 4V60C64 62.2091 62.2091 64 60 64H4C1.79086 64 0 62.2091 0 60V4Z" fill="#7866D5"/>
<path d="M44.9521 16.4284C46.0353 16.5638 47.1636 16.6541 48.2468 16.8346C50.3681 17.2408 51.0903 18.3241 50.7292 20.4905C50.6389 21.3029 50.0071 21.9348 49.1947 22.0702C48.6982 22.1605 48.1566 22.2056 47.6601 22.1605C40.6192 22.1605 33.6234 22.2056 26.5825 22.2056C25.5444 22.2056 24.4612 22.2959 23.4231 22.4764C19.9478 23.018 18.5938 24.4623 18.323 27.9827C18.1876 29.6076 18.1876 29.6076 19.8576 29.6076H47.8406C48.1114 29.6076 48.3822 29.6076 48.653 29.6076C49.1044 29.6076 49.5106 29.743 49.9168 29.9686C51.1805 30.781 50.8646 32.0899 50.8195 33.2634C50.7743 34.2112 50.1876 34.7528 49.1947 34.9334C48.7884 35.0236 48.3822 35.0236 47.9309 35.0236C38.3625 35.0236 28.7941 35.0236 19.2257 35.0236C18.1876 35.0236 18.1876 35.0236 18.2779 36.0617C18.323 37.0095 18.4133 37.9574 18.6389 38.9052C19.0903 40.6203 20.1284 41.7035 21.8886 42.1999C23.7842 42.7416 25.7701 42.8318 27.7109 42.877C34.5261 42.877 41.3865 42.877 48.2468 42.877C49.1044 42.877 49.9168 42.9672 50.4584 43.7796C51.3159 45.1337 50.8646 46.8939 49.5106 47.7514C49.33 47.8868 49.1495 47.9771 48.9238 48.0222C47.4344 48.5187 45.8999 48.609 44.3202 48.6541C37.866 48.7895 31.457 48.7895 25.048 48.6541C23.0621 48.609 21.0762 48.3833 19.1354 47.9771C14.5769 47.0293 12.275 44.6823 11.5078 40.0786C11.3272 39.0406 11.237 37.9574 11.1016 36.8741V28.4792C11.1918 27.6668 11.2821 26.8093 11.3724 25.9968C11.9591 20.8064 14.3061 18.2338 19.4062 17.0603C21.2116 16.6541 23.1072 16.5638 24.9126 16.3833L44.9521 16.4284Z" fill="white"/>
<path fill-rule="evenodd" clip-rule="evenodd" d="M25.0027 49.4672C28.2073 49.5123 31.4118 49.5574 34.6614 49.5574C36.2919 49.5574 37.9224 49.5461 39.5472 49.5347C41.1607 49.5235 42.7686 49.5123 44.3652 49.5123C45.8095 49.4672 47.5246 49.3769 49.1946 48.8353C49.4654 48.745 49.7362 48.6096 49.9618 48.4742C50.8194 47.9326 51.4061 47.1202 51.6318 46.1724C51.8575 45.2246 51.7221 44.2316 51.1805 43.3741C50.368 42.0652 48.9689 42.0652 48.2919 42.0652H43.7785C38.4978 42.0652 33.0817 42.0652 27.7559 42.0201C26.0408 42.0201 24.0549 41.9298 22.1142 41.3882C20.6699 40.982 19.8123 40.1244 19.4513 38.7253C19.2256 37.8226 19.1353 36.9199 19.0902 35.9721V35.927V35.7916H19.2707H47.9308C48.3821 35.7916 48.8335 35.7916 49.33 35.7013C50.7291 35.4305 51.4964 34.5729 51.5867 33.3092C51.5867 33.2415 51.5979 33.1625 51.6092 33.0835C51.6205 33.0045 51.6318 32.9256 51.6318 32.8579L51.6337 32.8355C51.7238 31.7542 51.8469 30.2784 50.3229 29.2923C49.8264 29.0215 49.2397 28.8409 48.653 28.8409H19.8575H19.0902C19.0902 28.7332 19.1005 28.6153 19.1112 28.4919C19.123 28.3568 19.1353 28.2152 19.1353 28.0736C19.4061 24.9143 20.4442 23.7859 23.5585 23.2894C24.5514 23.1089 25.5895 23.0186 26.5824 23.0186C33.5782 23.0186 40.6191 22.9735 47.6149 22.9284C48.2016 22.9284 48.7432 22.8832 49.2848 22.793C50.5034 22.6124 51.4061 21.6646 51.5415 20.5363C51.9929 17.9185 50.9999 16.4742 48.4273 15.9777C47.8233 15.8435 47.2443 15.7841 46.6717 15.7254C46.474 15.7052 46.2772 15.685 46.0803 15.6618C45.7644 15.6618 45.4033 15.6167 45.0874 15.5715H45.0422H24.9576H24.8673L23.5133 15.7069C22.1142 15.8423 20.715 15.9777 19.2707 16.2937C13.8095 17.5123 11.1917 20.3557 10.5599 25.9072C10.5386 26.1624 10.5073 26.4175 10.4755 26.6774C10.4397 26.9692 10.4032 27.2669 10.3793 27.5772L10.2891 28.3896V36.8748V36.965C10.3342 37.3261 10.3793 37.6421 10.4245 37.958C10.4696 38.6801 10.5599 39.4474 10.6953 40.2147C11.5077 45.0892 14.0352 47.7069 18.9548 48.745C20.9407 49.1964 22.9717 49.422 25.0027 49.4672ZM12.0043 37.7774C12.0043 37.4615 11.9592 37.1455 11.9141 36.8296V28.5701L12.0043 27.8028C12.0282 27.4925 12.0647 27.1948 12.1005 26.903C12.1323 26.6432 12.1636 26.388 12.1849 26.1328C12.7265 21.2584 14.8026 18.9565 19.5417 17.783C20.7031 17.5121 21.8313 17.4071 23.0117 17.2973C23.2075 17.2791 23.4047 17.2607 23.6038 17.2414L24.9578 17.106H44.907C45.2229 17.106 45.584 17.1512 45.9 17.1963C46.6221 17.2414 47.3442 17.3317 48.0664 17.4671C49.7815 17.8282 50.2328 18.4149 49.9169 20.2203C49.8717 20.6716 49.5107 21.0327 49.0593 21.0778C48.608 21.1681 48.1567 21.1681 47.6602 21.1681C44.1397 21.1681 40.6306 21.1794 37.1214 21.1907C33.6122 21.2019 30.1031 21.2132 26.5826 21.2132C25.4543 21.2584 24.371 21.3486 23.2878 21.5292C19.4514 22.1159 17.8266 23.8761 17.5107 27.7577C17.5059 27.8571 17.5007 27.9531 17.4957 28.0458C17.4526 28.8361 17.4226 29.3847 17.8266 29.7887C18.278 30.24 18.8647 30.24 19.8576 30.24H48.7434C49.0142 30.24 49.3301 30.3303 49.5558 30.4657C50.1877 30.8719 50.1877 31.4135 50.0974 32.5419C50.0974 32.6321 50.0861 32.7111 50.0749 32.7901C50.0636 32.8691 50.0523 32.9481 50.0523 33.0383C50.0071 33.4897 49.8266 33.8056 49.1045 33.941C48.7434 34.0313 48.3372 34.0313 47.9761 34.0313H19.2709C18.639 34.0313 18.1426 34.0313 17.7815 34.4375C17.4317 34.831 17.4631 35.2668 17.5065 35.8681C17.5079 35.8876 17.5093 35.9071 17.5107 35.9269V35.972C17.5107 36.965 17.6461 38.0031 17.8717 38.996C18.3682 41.0271 19.632 42.3359 21.663 42.8776C23.7843 43.5094 25.9056 43.5997 27.711 43.5997C33.0368 43.6448 38.498 43.6448 43.7335 43.6448H48.2469C49.1045 43.6448 49.4655 43.7802 49.7363 44.1864C50.0523 44.6829 50.1426 45.2245 50.0072 45.7661C49.8717 46.3077 49.5107 46.7591 49.0593 47.075C48.9916 47.0976 48.9239 47.1314 48.8562 47.1653C48.7885 47.1991 48.7208 47.233 48.6531 47.2555C47.2088 47.7069 45.6292 47.7972 44.3203 47.8423C37.9112 47.9777 31.4119 47.9777 25.0481 47.8423C23.1073 47.7972 21.1665 47.5715 19.2709 47.1653C15.0283 46.2626 12.9973 44.1864 12.2751 39.9438L12.0043 37.7774Z" fill="white"/>
</svg>

<svg width="64" height="64" fill="none" xmlns="http://www.w3.org/2000/svg"><path d="M0 4a4 4 0 014-4h56a4 4 0 014 4v56a4 4 0 01-4 4H4a4 4 0 01-4-4V4z" fill="#7866D5"/><path d="M44.952 16.428c1.083.136 2.212.226 3.295.407 2.121.406 2.843 1.49 2.482 3.655-.09.813-.722 1.445-1.534 1.58-.497.09-1.038.136-1.535.09-7.04 0-14.037.046-21.077.046-1.039 0-2.122.09-3.16.27-3.475.542-4.83 1.986-5.1 5.507-.135 1.625-.135 1.625 1.535 1.625h28.795c.451 0 .858.135 1.264.36 1.264.813.948 2.122.902 3.295-.045.948-.631 1.49-1.624 1.67-.407.09-.813.09-1.264.09H19.226c-1.038 0-1.038 0-.948 1.039.045.948.135 1.895.36 2.843.452 1.715 1.49 2.798 3.25 3.295 1.896.542 3.882.632 5.823.677h20.536c.857 0 1.67.09 2.211.903.858 1.354.407 3.114-.947 3.971a1.392 1.392 0 01-.587.271c-1.49.497-3.024.587-4.604.632a458.58 458.58 0 01-19.272 0 32.512 32.512 0 01-5.913-.677c-4.558-.948-6.86-3.295-7.627-7.898-.18-1.038-.271-2.122-.406-3.205V28.48c.09-.812.18-1.67.27-2.482.587-5.19 2.934-7.763 8.034-8.937 1.806-.406 3.701-.496 5.507-.677l20.04.045z" fill="#fff"/><path fill-rule="evenodd" clip-rule="evenodd" d="M25.003 49.467c3.204.045 6.409.09 9.658.09 1.63 0 3.261-.01 4.886-.022 1.614-.011 3.222-.023 4.818-.023 1.444-.045 3.16-.135 4.83-.677a4 4 0 00.767-.36 3.74 3.74 0 001.67-2.303c.226-.947.09-1.94-.451-2.798-.813-1.309-2.212-1.309-2.89-1.309H43.78c-5.281 0-10.697 0-16.023-.045-1.715 0-3.701-.09-5.642-.632-1.444-.406-2.302-1.264-2.663-2.663-.225-.902-.316-1.805-.36-2.753v-.18h28.84c.451 0 .903 0 1.399-.09 1.4-.271 2.166-1.13 2.257-2.393 0-.067.01-.146.022-.225.011-.08.023-.158.023-.226l.002-.022c.09-1.082.213-2.558-1.311-3.544-.497-.27-1.083-.451-1.67-.451H19.09c0-.108.01-.226.021-.35.012-.134.024-.276.024-.417.271-3.16 1.31-4.288 4.423-4.785a17.18 17.18 0 013.024-.27c6.996 0 14.037-.045 21.033-.09.587 0 1.128-.046 1.67-.136 1.218-.18 2.121-1.128 2.257-2.257.45-2.617-.542-4.062-3.115-4.558-.604-.134-1.183-.194-1.755-.253-.198-.02-.395-.04-.592-.063-.316 0-.677-.045-.993-.09H24.868l-1.355.135c-1.399.135-2.798.27-4.242.587-5.462 1.218-8.08 4.062-8.711 9.613-.021.255-.053.51-.085.77-.035.292-.072.59-.096.9l-.09.813v8.575c.045.361.09.677.136.993.045.722.135 1.49.27 2.257.813 4.874 3.34 7.492 8.26 8.53 1.986.451 4.017.677 6.048.722zm-12.999-11.69c0-.316-.045-.632-.09-.947v-8.26l.09-.767c.024-.31.06-.608.097-.9.031-.26.063-.515.084-.77.541-4.875 2.618-7.177 7.357-8.35 1.161-.27 2.29-.376 3.47-.486.195-.018.393-.036.592-.056l1.354-.135h19.949c.316 0 .677.045.993.09.722.045 1.444.136 2.166.271 1.715.361 2.167.948 1.85 2.753a.961.961 0 01-.857.858c-.451.09-.902.09-1.399.09-3.52 0-7.03.011-10.539.023-3.509.01-7.018.022-10.538.022a26.28 26.28 0 00-3.295.316c-3.837.587-5.461 2.347-5.777 6.229l-.015.288c-.043.79-.073 1.339.33 1.743.452.451 1.039.451 2.032.451h28.885c.271 0 .587.09.813.226.632.406.632.947.541 2.076 0 .09-.01.17-.022.248-.011.08-.023.158-.023.248-.045.452-.225.768-.947.903-.362.09-.768.09-1.129.09H19.271c-.632 0-1.128 0-1.49.407-.35.393-.318.829-.274 1.43 0 .02.002.04.004.059v.045c0 .993.135 2.031.36 3.024.497 2.031 1.761 3.34 3.792 3.882 2.121.631 4.243.722 6.048.722 5.326.045 10.787.045 16.023.045h4.513c.858 0 1.218.135 1.49.541.315.497.406 1.038.27 1.58-.135.542-.496.993-.948 1.309a1.596 1.596 0 00-.203.09c-.068.034-.135.068-.203.09-1.444.452-3.024.542-4.333.587-6.409.136-12.908.136-19.272 0a31.06 31.06 0 01-5.777-.677c-4.243-.902-6.274-2.979-6.996-7.221l-.27-2.167z" fill="#fff"/></svg>
